img/SAUNA/icon/food.svg

<svg width="30" height="30" viewBox="0 0 30 30" fill="none" xmlns="http://www.w3.org/2000/svg">
<path d="M22.5 3.75C22.8062 3.75004 23.1017 3.86245 23.3305 4.06589C23.5593 4.26934 23.7054 4.54969 23.7412 4.85375L23.75 5V25C23.7496 25.3186 23.6277 25.625 23.4089 25.8567C23.1902 26.0884 22.8913 26.2278 22.5733 26.2465C22.2552 26.2651 21.942 26.1617 21.6977 25.9572C21.4534 25.7527 21.2964 25.4626 21.2587 25.1462L21.25 25V18.75H20C19.6938 18.75 19.3983 18.6376 19.1695 18.4341C18.9407 18.2307 18.7946 17.9503 18.7587 17.6462L18.75 17.5V10C18.75 7.2375 20.625 3.75 22.5 3.75ZM15 3.75C15.3062 3.75004 15.6017 3.86245 15.8305 4.06589C16.0593 4.26934 16.2054 4.54969 16.2413 4.85375L16.25 5V11.25C16.2499 12.3586 15.8815 13.4357 15.2027 14.3122C14.524 15.1887 13.5733 15.8149 12.5 16.0925V25C12.4996 25.3186 12.3777 25.625 12.1589 25.8567C11.9402 26.0884 11.6413 26.2278 11.3233 26.2465C11.0052 26.2651 10.692 26.1617 10.4477 25.9572C10.2034 25.7527 10.0464 25.4626 10.0087 25.1462L10 25V16.0925C8.96932 15.826 8.05051 15.2377 7.37721 14.4131C6.7039 13.5885 6.31121 12.5706 6.25625 11.5075L6.25 11.25V5C6.25035 4.6814 6.37235 4.37496 6.59106 4.14329C6.80977 3.91162 7.10869 3.77221 7.42674 3.75353C7.7448 3.73486 8.05797 3.83834 8.30229 4.04283C8.54661 4.24732 8.70362 4.53738 8.74125 4.85375L8.75 5V11.25C8.75001 11.6888 8.86553 12.1199 9.08495 12.5C9.30437 12.88 9.61996 13.1956 10 13.415V5C10.0004 4.6814 10.1223 4.37496 10.3411 4.14329C10.5598 3.91162 10.8587 3.77221 11.1767 3.75353C11.4948 3.73486 11.808 3.83834 12.0523 4.04283C12.2966 4.24732 12.4536 4.53738 12.4913 4.85375L12.5 5L12.5013 13.415C12.8501 13.2134 13.145 12.9304 13.3609 12.5902C13.5768 12.25 13.7073 11.8627 13.7413 11.4612L13.75 11.25V5C13.75 4.66848 13.8817 4.35054 14.1161 4.11612C14.3505 3.8817 14.6685 3.75 15 3.75Z" fill="#2F2F2F"/>
</svg>

<svg width="30" height="30" viewBox="0 0 30 30" fill="none" xmlns="http://www.w3.org/2000/svg"><path d="M22.5 3.75a1.25 1.25 0 011.241 1.104L23.75 5v20a1.25 1.25 0 01-2.491.146L21.25 25v-6.25H20a1.25 1.25 0 01-1.241-1.104l-.009-.146V10c0-2.763 1.875-6.25 3.75-6.25zm-7.5 0a1.25 1.25 0 011.241 1.104L16.25 5v6.25a5.002 5.002 0 01-3.75 4.843V25a1.25 1.25 0 01-2.491.146L10 25v-8.907a5.003 5.003 0 01-3.744-4.585l-.006-.258V5a1.25 1.25 0 012.491-.146L8.75 5v6.25A2.5 2.5 0 0010 13.415V5a1.25 1.25 0 012.491-.146L12.5 5l.001 8.415a2.5 2.5 0 001.24-1.954l.009-.211V5A1.25 1.25 0 0115 3.75z" fill="#2F2F2F"/></svg>
